X:517
T:Ron's Smile
C:Katsuyuki Miyazaki
N:TablEdited by Larry Tanner
L:1/8
Q:1/4=195
M:4/4
K:C
"Intro"z3^c dz df | dc AF ^FG D_B, | G,2 [g3B3D3G,3][g2B2D2G,2][gBDG,] | [gBDG,]z AG FD C^C | 
"Dm"Dz DD DE FD | "A"EE zF E/F/E DC | "Dm"Dz dc A^G =GF | D2 C^C D2 Ac | "Dm"dz "Verse"dd df dc | 
A^G AG =GF DE | "F"F2 [FA,][FA,] FG FD | "A"EC B,_B, A,2 A,C | "Dm"DC DE FE FG | 
A2 dd cA GF | "G"G2 GA "A"GF E/F/E | "Dm"D2 C^C D2 Ac | dz dd df dc | A^G AG =GF DE | 
"F"F2 [FA,][FA,] FG FD | "A"EC B,_B, A,2 A,C | "Dm"DC DE FE FG | A2 dd cA GF | 
"G"G2 GA "A"GF E/F/E | "Dm"D2 C^C D2 DE | "F"F2 FG AG FA | "C"GF ED C2 Ac | "Dm"^cd de fe df | 
"A7"ed ca g^c G2 | "F"ff fg ag fa | "C"ge/f/ ed c2 Ac | "Dm"dc df "A"ed c2 | "Dm"^cd AF D2 DE | 
"F"F2 FG AG FA | "C"GF ED C2 Ac | "Dm"^cd de fe df | "A7"ed ca g^c G2 | "F"ff fg ag fa | 
"C"ge/f/ ed c2 Ac | "Dm"dc df "A"ed c2 | "Dm"^cd AF D4 | ^cd df d=c AF | "G"^FG D_B, G,2 [g2B2D2G,2] | 
z[gBDG,] z[gBDG,] [gBDG,]z AG | 
M:2/4
FD C^C | 
M:4/4
"Dm"Dz DD DE FD | "A"EE zF E/F/E DC | "Dm"Dz dc A^G =GF | D2 C^C D4 | z8 | 


